assets/switch-on.svg

<?xml version="1.0" encoding="UTF-8" standalone="no"?>
<!-- Created with Inkscape (http://www.inkscape.org/) -->

<svg
   width="48"
   height="24"
   viewBox="0 0 48 24"
   version="1.1"
   id="svg5"
   inkscape:version="1.1.1 (3bf5ae0d25, 2021-09-20)"
   sodipodi:docname="switch-on.svg"
   xmlns:inkscape="http://www.inkscape.org/namespaces/inkscape"
   xmlns:sodipodi="http://sodipodi.sourceforge.net/DTD/sodipodi-0.dtd"
   xmlns="http://www.w3.org/2000/svg"
   xmlns:svg="http://www.w3.org/2000/svg">
  <sodipodi:namedview
     id="namedview7"
     pagecolor="#505050"
     bordercolor="#eeeeee"
     borderopacity="1"
     inkscape:pageshadow="0"
     inkscape:pageopacity="0"
     inkscape:pagecheckerboard="0"
     inkscape:document-units="px"
     showgrid="true"
     width="48px"
     inkscape:zoom="12.3125"
     inkscape:cx="11.979695"
     inkscape:cy="12.182741"
     inkscape:window-width="1920"
     inkscape:window-height="1019"
     inkscape:window-x="0"
     inkscape:window-y="30"
     inkscape:window-maximized="1"
     inkscape:current-layer="layer1">
    <inkscape:grid
       type="xygrid"
       id="grid824" />
  </sodipodi:namedview>
  <defs
     id="defs2" />
  <g
     inkscape:label="Camada 1"
     inkscape:groupmode="layer"
     id="layer1">
    <path
       id="rect1076"
       style="fill:#ffffff;stroke:none;stroke-width:2;stroke-linecap:square;stroke-linejoin:round;stroke-miterlimit:4;stroke-dasharray:none;paint-order:stroke markers fill"
       d="M 12 0 C 5.352 0 0 5.352 0 12 C 0 18.648 5.352 24 12 24 L 36 24 C 42.648 24 48 18.648 48 12 C 48 5.352 42.648 0 36 0 L 12 0 z M 37 5 A 7 7 0 0 1 44 12 A 7 7 0 0 1 37 19 A 7 7 0 0 1 30 12 A 7 7 0 0 1 37 5 z " />
  </g>
</svg>

<svg version="1.1" viewBox="0 0 48 24" xmlns="http://www.w3.org/2000/svg">
 <path d="m12 0c-6.648 0-12 5.352-12 12s5.352 12 12 12h24c6.648 0 12-5.352 12-12s-5.352-12-12-12h-24zm25 5a7 7 0 0 1 7 7 7 7 0 0 1-7 7 7 7 0 0 1-7-7 7 7 0 0 1 7-7z" fill="#fff" style="paint-order:stroke markers fill"/>
</svg>
